svgs/sharp-light/file-zipper.svg

<svg xmlns="http://www.w3.org/2000/svg" viewBox="0 0 384 512"><!--! Font Awesome Pro 6.6.0 by @fontawesome - https://fontawesome.com License - https://fontawesome.com/license (Commercial License) Copyright 2024 Fonticons, Inc. --><path d="M208 192l-16 0 0-16 0-144L32 32l0 448 320 0 0-288-144 0zm138.7-32L224 37.3 224 160l122.7 0zM32 0L232 0 384 152l0 328 0 32-32 0L32 512 0 512l0-32L0 32 0 0 32 0zM64 64l16 0 64 0 16 0 0 32-16 0L80 96 64 96l0-32zm0 64l16 0 64 0 16 0 0 32-16 0-64 0-16 0 0-32zm0 64l16 0 64 0 16 0 0 32-16 0-64 0-16 0 0-32zm32 64l32 0 12.1 0 3.3 11.6L158 318.9c1.3 4.6 2 9.3 2 14l0 3.1c0 26.5-21.5 48-48 48s-48-21.5-48-48l0-3.1c0-4.7 .7-9.5 2-14l14.7-51.3L83.9 256 96 256zm.7 71.7c-.5 1.7-.7 3.5-.7 5.2l0 3.1c0 8.8 7.2 16 16 16s16-7.2 16-16l0-3.1c0-1.8-.2-3.5-.7-5.2L115.9 288l-7.9 0L96.7 327.7z"/></svg>

<svg xmlns="http://www.w3.org/2000/svg" viewBox="0 0 384 512"><!--! Font Awesome Pro 6.5.2 by @fontawesome - https://fontawesome.com License - https://fontawesome.com/license (Commercial License) Copyright 2024 Fonticons, Inc. --><path d="M208 192H192V176 32H32V480H352V192H208zm138.7-32L224 37.3V160H346.7zM32 0H232L384 152V480v32H352 32 0V480 32 0H32zM64 64H80h64 16V96H144 80 64V64zm0 64H80h64 16v32H144 80 64V128zm0 64H80h64 16v32H144 80 64V192zm32 64h32 12.1l3.3 11.6L158 318.9c1.3 4.6 2 9.3 2 14V336c0 26.5-21.5 48-48 48s-48-21.5-48-48v-3.1c0-4.7 .7-9.5 2-14l14.7-51.3L83.9 256H96zm.7 71.7c-.5 1.7-.7 3.5-.7 5.2V336c0 8.8 7.2 16 16 16s16-7.2 16-16v-3.1c0-1.8-.2-3.5-.7-5.2L115.9 288h-7.9L96.7 327.7z"/></svg>
